X:1
T:Title
C:Composer
L:1/4 
M:4/4
I:linebreak $
K:C
A,2 A,2 | ^G, E, A,2 | E E D C | B,3/2 A,/ ^G,/F,/E,/D,/ | A,2 C,2 | F, E, D, B,, | %6
 E, ^F, ^G, E, | ^G,3/2 B,/ A,2 |] %8
